X:1
T:Sei Tu Signore il Pane
T:Winchester Old, G. Kirbye arr. BMarble
T:Sei Tu Signore il Pane
T:Copyright © 2016 by CPDL.  This edition can be fully distributed, duplicated, performed, and recorded.
T:Copyright © 2016 by CPDL.  This edition can be fully distributed, duplicated, performed, and recorded.
T:Copyright © 2016 by CPDL.  This edition can be fully distributed, duplicated, performed, and recorded.
C:Winchester Old, G. Kirbye
C:arr. BMarble
Z:Copyright © 2016 by CPDL.  This edition can be fully distributed, duplicated, performed, and recorded.
%%score [ ( 1 2 ) ( 3 4 ) ]
L:1/8
Q:1/4=60
M:2/4
K:F
V:1 treble nm="P1"
V:2 treble 
V:3 bass nm="P2"
V:4 bass 
V:1
 F2 | A2 A2 | G2 F2 | B4 | A2 G2 | A2 c2 | c2 =B2 | c4 | z2 A2 | d3 c | B2 A2 | (G2 F2) | E2 A2 | %13
w: 1.~Sei|tu Si-|gno- re\_il|pa-|ne, tu|ci- bo|sei per|noi.|Ri-|sor- to\_a|vi- ta|nuo- *|va sei|
w: 2.~Nel-|l'ul- it-|ma sua|ce-|na Ge-|su si|do- na\_ai|suoi:|"Pren-|de- te|pa- ne\_e|vi- *|no, la|
 G2 F2 | F2 E2 | F4 |] F2 | A2 A2 | G2 F2 | B4 | A2 G2 | A2 c2 | c2 =B2 | c4 | z2 A2 | d3 c | %26
w: vi- vo\_in|mez- zo\_a|noi.|3.~"Man-|gia- te|ques- to|pa-|ne: chi|cre- de\_in|me, vi-|vra',|chi|be- ve\_il|
w: vi- ta|mia per|voi."|4.~E'|Chri- sto\_il|pa- ne|ve-|ro di-|vi- so|qui per|noi:|for-|mia- mo\_un|
 B2 A2 | (G2 F2) | E2 A2 | G2 F2 | F2 E2 | F4 |] F2 | A2 A2 | G2 F2 | B4 | A2 G2 | A2 c2 | c2 =B2 | %39
w: vi- no|nuo- *|vo, con|me ri-|sor- ge-|ra'."|5.~Se|por- ti|la sua|cro-|ce in|lui tu|re- gne-|
w: so- lo|cor- *|po e|Dio sa-|ra' con|noi.|6.~Ve-|ran- no\_i|cie- li|nuo-|vi, la|ter- ra|fio- ri-|
 c4 | z2 A2 | d3 c | B2 A2 | (G2 F2) | E2 A2 | G2 F2 | F2 E2 | F4 |] %48
w: rai:|se|muo- ri\_u-|ni- to\_a|Chri- *|sto con|lui ri-|na- sce-|rai.|
w: ra':|vi-|vre- mo|da fra-|tel- *|li; in|Chie- sa\_e'|ca- ri-|ta'.|
V:2
 F2 | C2 F2 | E2 D2 | DEFG | GF ED | C2 CG | FE D2 | E4 | x2 F2 | F3 E | D2 CF | (F E2 D) | %12
 ^C2 =C2 | CB, B,A, | G,D C2 | C4 |] F2 | C2 F2 | E2 D2 | DEFG | GF ED | C2 CG | FE D2 | E4 | %24
 x2 F2 | F3 E | D2 CF | (F E2 D) | ^C2 =C2 | CB, B,A, | G,D C2 | C4 |] F2 | C2 F2 | E2 D2 | DEFG | %36
 GF ED | C2 CG | FE D2 | E4 | x2 F2 | F3 E | D2 CF | (F E2 D) | ^C2 =C2 | CB, B,A, | G,D C2 | C4 |] %48
V:3
 F,2 | A,2 C2 | C2 A,2 | D4 | C2 CB, | A,G, F,E, | F,2 G,2 | G,4 | z2 F,2 | (B,A,) G,2 | %10
 F,G, A,B, | (C2 A,2) | A,2 A,2 | D2 C2 | B,A, G,2 | A,4 |] F,2 | A,2 C2 | C2 A,2 | D4 | C2 CB, | %21
 A,G, F,E, | F,2 G,2 | G,4 | z2 F,2 | (B,A,) G,2 | F,G, A,B, | (C2 A,2) | A,2 A,2 | D2 C2 | %30
 B,A, G,2 | A,4 |] F,2 | A,2 C2 | C2 A,2 | D4 | C2 CB, | A,G, F,E, | F,2 G,2 | G,4 | z2 F,2 | %41
 (B,A,) G,2 | F,G, A,B, | (C2 A,2) | A,2 A,2 | D2 C2 | B,A, G,2 | A,4 |] %48
V:4
 F,2 | F,2 F,2 | C,2 D,2 | B,,C,D,E, | F,2 C,2 | F,E, D,C, | D,2 G,,2 | C,4 | x2 D,2 | B,,3 C, | %10
 D,E, F,2 | (C,2 D,2) | A,,2 F,,2 | G,,2 A,,2 | B,,2 C,2 | F,,4 |] F,2 | F,2 F,2 | C,2 D,2 | %19
 B,,C,D,E, | F,2 C,2 | F,E, D,C, | D,2 G,,2 | C,4 | x2 D,2 | B,,3 C, | D,E, F,2 | (C,2 D,2) | %28
 A,,2 F,,2 | G,,2 A,,2 | B,,2 C,2 | F,,4 |] F,2 | F,2 F,2 | C,2 D,2 | B,,C,D,E, | F,2 C,2 | %37
 F,E, D,C, | D,2 G,,2 | C,4 | x2 D,2 | B,,3 C, | D,E, F,2 | (C,2 D,2) | A,,2 F,,2 | G,,2 A,,2 | %46
 B,,2 C,2 | F,,4 |] %48

